**kern	**kern	**kern
*staff1	*staff2	*staff3
*	*	*tb8
=1-	=1-	=1-
*clefG2	*clefG2	*clefF4
*k[b-e-a-]	*k[b-e-a-]	*k[b-e-a-]
*met(c)	*met(c)	*met(c)
*M4/4	*M4/4	*M4/4
1r	8e-/L 8g/	2.EE-/ 2.E-/
=2	8B-/	.
2r	8B-/	.
4r	8e-/J 8g/	.
8b-\	8e-/L 8g/	.
8b-\	8B-/	.
=3	8B-/	4DD-/ 4D-/
4b-\	8e-/J 8g/	.
8cc\	=2	=2
8dd\	8e-/L 8a-/	2.CC/ 2.C/
8ff\L	8c/	.
8ee-\J	8c/	.
8dd\L	8e-/J 8a-/	.
8cc\J	8f/L 8a-/	.
=4	8B-/	.
(4b-\	8B-/	4DDn/ 4Dn/
4a-/)	8f/J 8a-/	.
4r	=3	=3
8b-\L	8e-/L 8g/	4EE-/ 4E-/
8cc\J	8B-/	.
=5	8B-/	4DD/ 4D/
4.cc\	8e-/J 8g/	.
8f/	8e-/L 8g/	2CC/ 2C/
4f/	8c/	.
8g/L	8c/	.
8a-/J	8e-/J 8g/	.
=6	=4	=4
!!linebreak:original
4d/	1r	2CC/ 2C/
4r	=5	.
8r	8f/L 8a-/	.
8d/	8B-/	.
8e-/	8B-/	2r
8f/	8f/J 8a-/	.
=7	8e-/L 8a-/	.
8g/L	8B-/	.
8a-/J	8B-/	=5
4b-\	8e-/J 8a-/	2DD/ 2D/
8b-\L	=6	.
!!linebreak:original
8bn\J	8d/L 8a-/	.
8cc\L	8B-/	.
8dd\J	8B-/	2CC/ 2C/
=8	8d/J 8a-/	.
(4ff\	8d/L 8a-/	.
4ee-\)	8B-/	.
4r	8B-/	=6
!!linebreak:original
8dd\L	8d/J 8a-/	1BBB- 1BB-
8cc\J	=7	.
=9	8e-/L 8g/	.
4b-\	8B-/	.
8an/L	8B-/	.
8g/J	8e-/J 8g/	.
4b-\	8e-/L 8g/	.
8a/L	8B-/	.
8g/J	8B-/	=7
=10	8e-/J 8g/	2EE-/ 2E-/
!!linebreak:original
4an/	=8	.
4r	8e-/L 8g/	.
4r	8c/	.
4d/	8c/	2DD/ 2D/
=11	8e-/J 8g/	.
4bn\	8e-/L 8g/	.
4g/	8c/	.
4dd\	8c/	=8
4g/	8e-/J 8g/	1CC 1C
=12	=9	.
([2ee-\	8en/L 8g/	.
8ee-\L]	8B-/	.
8dd-\J)	8B-/	.
8cc\L	8e/J 8g/	.
8b-\J	8c/L 8g/	.
=13	8An/	.
(4bn\	8A/	=9
4cc\)	8c/J 8g/	2CC#/ 2C#/
4r	=10	.
!!linebreak:original
8cc\L	8d/L 8f#/	.
8b-\J	8An/	.
=14	8A/	2EEn/ 2En/
8a-/L	8d/J 8f#/	.
8f/J	8d/L 8f#/	.
8cc\L	8A/	.
8a-\J	8A/	=10
!!linebreak:original
4.ff\	8d/J 8f#/	1DD 1D
8ee-\	=11	.
=15	8d/L 8g/	.
!!linebreak:original
4dd\	8Bn/	.
4r	8B/	.
4r	8d/J 8g/	.
4b-\	8d/L 8g/	.
=16	8B/	.
(8ee-\L	8B/	=11
8ff\	8d/J 8g/	2GG/ 2G/
8gg\	=12	.
8dd\J	8e-/L 8g/	.
8ff\L	8c/	.
8ee-\J)	8c/	2FF/ 2F/
8dd\L	8e-/J 8g/	.
8cc\J	8e-/L 8g/	.
=17	8B-/	.
(8b-/L	8B-/	=12
8a-/	8e-/J 8g/	1EE- 1E-
8g/	=13	.
8a-/J	8e-/L 8a-/	.
8dd\L	8c/	.
8cc\J)	8c/	.
8b-/L	8e-/J 8a-/	.
8a-/J	8en/L 8b-/	.
=18	8c/	.
4g/	8c/	=13
4r	8e/J 8b-/	2AA-\ 2A-\
4r	=14	.
4b-\	8f/L 8a-/	.
=19	8c/	.
4.ee-\	8c/	2GG/ 2G/
8e-/	8f/J 8a-/	.
8e-/L	8f/L 8a-/	.
8g/J	8B-/	.
8b-\L	8B-/	=14
8ee-\J	8f/J 8a-/	4FF/ 4F/
=20	=15	.
!!pagebreak:original
!!linebreak:original
4.ee-\	8f/L 8a-/	4EE-/ 4E-/
8e-/	8B-/	.
8e-/L	8B-/	4DD/ 4D/
8g-/J	8f/J 8a-/	.
8b-\L	8f/L 8a-/	4CC/ 4C/
8ee-\J	8B-/	.
=21	8B-/	=15
!!linebreak:original
4.ee-\	8f/J 8a-/	4BBB-/ 4BB-/
8ff\	=16	.
4gg-\	8e-/L 8g/	4BBB-/ 4BB-/
4an/	8B-/	.
=22	8B-/	4CC/ 4C/
4b-\	8e-/J 8g/	.
4r	8e-/L 8g/	4DD/ 4D/
4r	8c/	.
4b-\	8c/	=16
=23	8e-/J 8g/	2EE-/ 2E-/
(8b-\	=17	.
4gg\	8f/L 8a-/	.
4ff\	8c/	.
4ee-\	8c/	2EE-/ 2E-/
[8dd\	8f/J 8a-/	.
=24	8f/L 8a-/	.
8dd\]	8B-/	.
4cc\	8B-/	=17
4b-\	8f/J 8a-/	2EE-/ 2E-/
4a-/	=18	.
[8g/	8e-/L 8g/	.
=25	8B-/	.
!!linebreak:original
8g/L]	8B-/	2DD/ 2D/
8en/	8e-/J 8g/	.
8f/	8e-/L 8a-/	.
8g/J	8B-/	.
8a-/L	8B-/	=18
8b-/J)	8e-/J 8a-/	4EE-/ 4E-/
8bn\L	=19	.
8cc\J	8e-/L 8g/	4EE-/ 4E-/
=26	8B-/	.
2.e-/	8B-/	4FF/ 4F/
8g/L	8e-/J 8g/	.
8f/J	8e-/L 8g/	4BBB-/ 4BB-/
=27	8B-/	.
4e-/	8B-/	=19
4r	8e-/J 8g/	2EE-/ 2E-/
2r	=20	.
!!pagebreak:original
=28	8e-/L 8a-/	.
2r	8A-/	.
(4.cc\	8A-/	2DD-/ 2D-/
8b-\)	8e-/J 8a-/	.
=29	8e-/L 8g-/	.
8b-\	8B-/	.
8b-\	8B-/	=20
!!pagebreak:original
8cc\	8e-/J 8g-/	2CC-/ 2C-/
8dd\	=21	.
8ff\L	8e-/L 8g-/	.
8ee-\J	8c/	.
8dd\L	8c/	2BBB-/ 2BB-/
8cc\J	8e-/J 8f/	.
=30	8e-/L 8an/	.
!!linebreak:original
(4b-\	8c/	.
4a-/)	8c/	=21
4r	8e-/J 8f/	2AAAn/ 2AAn/
8b-\L	=22	.
8cc\J	8d/L	.
=31	8B-/	.
4.cc\	8d/ 8f/	2FFF/ 2FF/
8f/	8B-/J	.
4f/	8e-/L 8g/	.
8g/L	8B-/	.
8a-/J	8d/ 8a-/	=22
=32	8B-/J	4BBB-/ 4BB-/
4d/	=23	.
8r	4B-/ 4e-/ 4g/	4AA-\ 4A-\
8d/	4a-\ 4dd\	.
4e-/	4g/ 4cc/	4GG/ 4G/
4f/	4f/ 4bn/	.
=33	=24	4FF/ 4F/
8g/	4e-/ 4a-/	.
8a-/	4d-/ 4g/	=23
([4b-\	4c/ 4f/	4EE-/ 4E-/
8b-\L]	4B-/ 4d-/	.
8bn\J)	=25	4BBn/
!!linebreak:original
8cc\L	2A-/ 2c/	.
8dd\J	2r	4C/
=34	=26	.
(4ff\	8B-/L	4GG/
4ee-\)	8c/	.
4r	8An/	=24
8dd\L	8F#/J	4AA-/
8cc\J	4G/ 4B-/	.
=35	4A/ 4d/	4EEn/
!!linebreak:original
4b-\	=27	.
8an/L	8e-/L 8g/	4FF/
8g/J	8B-/	.
4bn\	8B-/	4GG/
(ccq/L	8e-/J 8g/	.
bq/J	8e-/L 8g/	=25
!!linebreak:original
8a/L)	8B-/	2AA-/
8g/J	8B-/	.
=36	8e-/J 8g/	.
4an/	=28	.
4r	8e-/L 8a-/	2r
4r	8c/	.
4d/	8c/	.
=37	8e-/J 8a-/	.
4bn\	8f/L 8a-/	=26
*	*	*^
4g/	8B-/	1BBB-	1BB-
4dd\	8B-/	.	.
4g/	8f/J 8a-/	.	.
=38	=29	.	.
([2ee-\	8e-/L 8g/	.	.
8ee-\L]	8B-/	.	.
8dd-\J)	8B-/	.	.
8cc\L	8e-/J 8g/	.	.
*	*	*v	*v
8b-\J	8e-/L 8g/	=27
=39	8c/	2.EE-/ 2.E-/
!!pagebreak:original
(4bn\	8c/	.
4cc\)	8e-/J 8g/	.
4r	=30	.
!!linebreak:original
8cc\L	8e-/L 8a-/	.
8b-\J	8c/	.
=40	8c/	4DD-/ 4D-/
8a-/L	8e-/J 8a-/	.
8f/J	8e-/L 8a-/	=28
8cc\L	8c/	2.CC/ 2.C/
8a-\J	8c/	.
4ff\	8e-/J 8a-/	.
4ee-\	=31	.
=41	8f/L 8a-/	.
(4ee-\	8B-/	.
4dd\)	8B-/	4DDn/ 4Dn/
4r	8f/J 8a-/	.
4b-\	8e-/L 8a-/	=29
=42	8B-/	4EE-/ 4E-/
!!linebreak:original
(8ee-\L	8B-/	.
8ff\	8e-/J 8a-/	4DD/ 4D/
8gg\	=32	.
8dd\J	8d/L 8a-/	2CC/ 2C/
8ff\L	8B-/	.
8ee-\J)	8B-/	.
8dd\L	8d/J 8a-/	.
8cc\J	8d/L 8a-/	=30
!!linebreak:original
=43	8B-/	2CC/ 2C/
(8b-/L	8B-/	.
8a-/	8d/J 8a-/	.
8g/	=33	.
8a-/J	8e-/L 8g/	2r
8dd\L	8B-/	.
8cc\J)	8B-/	.
8b-/L	8e-/J 8g/	.
8a-/J	8e-/L 8g/	=31
=44	8B-/	2DD/ 2D/
4g/	8B-/	.
4r	8e-/J 8g/	.
4r	=34	.
4b-\	8e-/L 8g/	2CC/ 2C/
=45	8c/	.
4.ee-\	8c/	.
8e-/	8e-/J 8g/	.
8e-/L	8e-/L 8g/	=32
8g/J	8c/	1BBB- 1BB-
8b-\L	8c/	.
8ee-\J	8e-/J 8g/	.
=46	=35	.
!!linebreak:original
4.ee-\	8en/L 8g/	.
8e-/	8B-/	.
8e-/L	8B-/	.
8g-/J	8e/J 8g/	.
8b-\L	8c/L 8g/	=33
8ee-\J	8An/	2EE-/ 2E-/
=47	8A/	.
4.ee-\	8c/J 8g/	.
8ff\	=36	.
4gg-\	8d/L 8f#/	2DD/ 2D/
4an/	8An/	.
=48	8A/	.
4b-\	8d/J 8f#/	.
4r	8d/L 8f#/	=34
4r	8A/	1CC 1C
4b-\	8A/	.
=49	8d/J 8f#/	.
!!linebreak:original
(8b-\	=37	.
4gg\	8d/L 8g/	.
4ff\	8Bn/	.
4ee-\	8B/	.
8dd\	8d/J 8g/	.
=50	8d/L 8g/	=35
!!linebreak:original
8dd\	8B/	2CC#/ 2C#/
4cc\	8B/	.
4b-\	8d/J 8g/	.
4a-/	=38	.
[8g/	8e-/L 8g/	2EEn/ 2En/
=51	8c/	.
8g/L]	8c/	.
8en/	8e-/J 8g/	.
8f/	8e-/L 8g/	=36
8g/J	8B-/	1DD 1D
8a-/L	8B-/	.
8b-/J)	8e-/J 8g/	.
8bn\L	=39	.
!!pagebreak:original
8cc\J	8e-/L 8a-/	.
=52	8c/	.
2.e-/	8c/	.
8g/L	8e-/J 8a-/	.
8f/J	8en/L 8b-/	=37
=53	8c/	2GG/ 2G/
4e-/	8c/	.
4r	8e/J 8b-/	.
2r	=40	.
==	8f/L 8a-/	2FF/ 2F/
*-	*	*
8c/	.
8c/	.
8f/J 8a-/	.
8f/L 8a-/	=38
8B-/	1EE- 1E-
8B-/	.
8f/J 8a-/	.
=41	.
8f/L 8a-/	.
8B-/	.
8B-/	.
8f/J 8a-/	.
8f/L 8a-/	=39
!!pagebreak:original
8B-/	2AA-\ 2A-\
8B-/	.
8f/J 8a-/	.
=42	.
!!linebreak:original
8e-/L 8g/	2GG/ 2G/
8B-/	.
8B-/	.
8e-/J 8g/	.
8e-/L 8g/	=40
8c/	4FF/ 4F/
8c/	.
8e-/J 8g/	4EE-/ 4E-/
=43	.
8f/L 8a-/	4DD/ 4D/
8c/	.
8c/	4CC/ 4C/
8f/J 8a-/	.
8f/L 8a-/	=41
8B-/	4BBB-/ 4BB-/
8B-/	.
8f/J 8a-/	4BBB-/ 4BB-/
=44	.
8e-/L 8g/	4CC/ 4C/
8B-/	.
8B-/	4DD/ 4D/
8e-/J 8g/	.
8e-/L 8a-/	=42
!!linebreak:original
8B-/	2EE-/ 2E-/
8B-/	.
8e-/J 8a-/	.
=45	.
8e-/L 8g/	2EE-/ 2E-/
8B-/	.
8B-/	.
8e-/J 8g/	.
8e-/L 8g/	=43
8B-/	2EE-/ 2E-/
8B-/	.
8e-/J 8g/	.
=46	.
!!linebreak:original
8e-/L 8a-/	2DD/ 2D/
8A-/	.
8A-/	.
8e-/J 8a-/	.
8e-/L 8g-/	=44
8B-/	4EE-/ 4E-/
8B-/	.
8e-/J 8g-/	4EE-/ 4E-/
=47	.
8e-/L 8g-/	4FF/ 4F/
8c/	.
8c/	4BBB-/ 4BB-/
8e-/J 8f/	.
8e-/L 8an/	=45
8c/	2EE-/ 2E-/
8c/	.
8e-/J 8f/	.
=48	.
8d/L	2DD-/ 2D-/
8B-/	.
8d/ 8f/	.
8B-/J	.
8e-/L 8g/	=46
!!linebreak:original
8B-/	2CC-/ 2C-/
8d/ 8a-/	.
8B-/J	.
=49	.
!!linebreak:original
4B-/ 4e-/ 4g/	2BBB-/ 2BB-/
4a-\ 4dd\	.
4g/ 4cc/	.
4f/ 4bn/	.
=50	=47
4e-/ 4a-/	2AAAn/ 2AAn/
4d-/ 4g/	.
4c/ 4f/	.
4B-/ 4d-/	.
=51	2FFF/ 2FF/
2A-/ 2c/	.
2r	.
=52	.
8B-/L	=48
8c/	4BBB-/ 4BB-/
8An/	.
8F#/J	4AA-\ 4A-\
4G/ 4B-/	.
4A/ 4d/	4GG/ 4G/
=53	.
4G/ 4e-/	4FF/ 4F/
4r	.
2r	=49
!!linebreak:original
==	4EE-/ 4E-/
*-	*
4BBn/
4C/
4GG/
=50
4AA-/
4EEn/
4FF/
4GG/
=51
2AA-/
2r
=52
*^
1BB-	1BBB-
*v	*v
=53
2EE-/ 2E-/
2r
==
*-
